/* XPM */
static char *code[] = {
/* columns rows colors chars-per-pixel */
"128 128 251 2 ",
"   c None",
".  c #000000",
"X  c #010101",
"o  c #020202",
"O  c #030303",
"+  c #040404",
"@  c #050505",
"#  c #060606",
"$  c #070707",
"%  c #080808",
"&  c #090909",
"*  c #0A0A0A",
"=  c #0B0B0B",
"-  c #0C0C0C",
";  c #0D0D0D",
":  c #0E0E0E",
">  c #0F0F0F",
",  c #101010",
"<  c #111111",
"1  c #121212",
"2  c #131313",
"3  c #141414",
"4  c #151515",
"5  c #161616",
"6  c #171717",
"7  c #181818",
"8  c #191919",
"9  c #1A1A1A",
"0  c #1B1B1B",
"q  c #1C1C1C",
"w  c #1D1D1D",
"e  c #1E1E1E",
"r  c #1F1F1F",
"t  c #202020",
"y  c #212121",
"u  c #222222",
"i  c #232323",
"p  c #242424",
"a  c #252525",
"s  c #262626",
"d  c #272727",
"f  c #282828",
"g  c #292929",
"h  c #2A2A2A",
"j  c #2B2B2B",
"k  c #2C2C2C",
"l  c #2D2D2D",
"z  c #2E2E2E",
"x  c #2F2F2F",
"c  c #303030",
"v  c #313131",
"b  c #323232",
"n  c #333333",
"m  c #343434",
"M  c #353535",
"N  c #363636",
"B  c #373737",
"V  c #383838",
"C  c #393939",
"Z  c #3A3A3A",
"A  c #3B3B3B",
"S  c #3C3C3C",
"D  c #3D3D3D",
"F  c #3E3E3E",
"G  c #3F3F3F",
"H  c #404040",
"J  c #414141",
"K  c #424242",
"L  c #434343",
"P  c #444444",
"I  c #454545",
"U  c #464646",
"Y  c #474747",
"T  c #484848",
"R  c #494949",
"E  c #4A4A4A",
"W  c #4B4B4B",
"Q  c #4C4C4C",
"!  c #4D4D4D",
"~  c #4E4E4E",
"^  c #4F4F4F",
"/  c #505050",
"(  c #515151",
")  c #525252",
"_  c #535353",
"`  c #545454",
"'  c #555555",
"]  c #565656",
"[  c #575757",
"{  c #585858",
"}  c #595959",
"|  c #5A5A5A",
" . c #5B5B5B",
".. c #5C5C5C",
"X. c #5D5D5D",
"o. c #5E5E5E",
"O. c #5F5F5F",
"+. c #606060",
"@. c #616161",
"#. c #626262",
"$. c #636363",
"%. c #646464",
"&. c #656565",
"*. c #666666",
"=. c #676767",
"-. c #686868",
";. c #696969",
":. c #6A6A6A",
">. c #6C6C6C",
",. c #6D6D6D",
"<. c #6E6E6E",
"1. c #6F6F6F",
"2. c #707070",
"3. c #717171",
"4. c #727272",
"5. c #737373",
"6. c #747474",
"7. c #757575",
"8. c #767676",
"9. c #787878",
"0. c #797979",
"q. c #7A7A7A",
"w. c #7B7B7B",
"e. c #7C7C7C",
"r. c #7D7D7D",
"t. c #7E7E7E",
"y. c #7F7F7F",
"u. c #808080",
"i. c #818181",
"p. c #828282",
"a. c #838383",
"s. c #848484",
"d. c #858585",
"f. c #868686",
"g. c #878787",
"h. c #888888",
"j. c #898989",
"k. c #8A8A8A",
"l. c #8B8B8B",
"z. c #8C8C8C",
"x. c #8D8D8D",
"c. c #8F8F8F",
"v. c #909090",
"b. c #919191",
"n. c #929292",
"m. c #939393",
"M. c #959595",
"N. c #969696",
"B. c #979797",
"V. c #989898",
"C. c #999999",
"Z. c #9A9A9A",
"A. c #9B9B9B",
"S. c #9C9C9C",
"D. c #9D9D9D",
"F. c #9E9E9E",
"G. c #9F9F9F",
"H. c #A0A0A0",
"J. c #A1A1A1",
"K. c #A2A2A2",
"L. c #A3A3A3",
"P. c #A4A4A4",
"I. c #A5A5A5",
"U. c #A6A6A6",
"Y. c #A7A7A7",
"T. c #A8A8A8",
"R. c #A9A9A9",
"E. c #AAAAAA",
"W. c #ABABAB",
"Q. c #ACACAC",
"!. c #AEAEAE",
"~. c #AFAFAF",
"^. c #B0B0B0",
"/. c #B1B1B1",
"(. c #B2B2B2",
"). c #B3B3B3",
"_. c #B4B4B4",
"`. c #B5B5B5",
"'. c #B6B6B6",
"]. c #B7B7B7",
"[. c #B8B8B8",
"{. c #B9B9B9",
"}. c #BABABA",
"|. c #BBBBBB",
" X c #BCBCBC",
".X c #BDBDBD",
"XX c #BEBEBE",
"oX c #BFBFBF",
"OX c #C0C0C0",
"+X c #C1C1C1",
"@X c #C2C2C2",
"#X c #C3C3C3",
"$X c #C4C4C4",
"%X c #C5C5C5",
"&X c #C6C6C6",
"*X c #C8C8C8",
"=X c #C9C9C9",
"-X c #CACACA",
";X c #CBCBCB",
":X c #CCCCCC",
">X c #CDCDCD",
",X c #CECECE",
"<X c #CFCFCF",
"1X c #D0D0D0",
"2X c #D1D1D1",
"3X c #D2D2D2",
"4X c #D3D3D3",
"5X c #D4D4D4",
"6X c #D5D5D5",
"7X c #D6D6D6",
"8X c #D7D7D7",
"9X c #D8D8D8",
"0X c #D9D9D9",
"qX c #DADADA",
"wX c #DBDBDB",
"eX c #DCDCDC",
"rX c #DDDDDD",
"tX c #DEDEDE",
"yX c #DFDFDF",
"uX c #E0E0E0",
"iX c #E1E1E1",
"pX c #E2E2E2",
"aX c #E3E3E3",
"sX c #E4E4E4",
"dX c #E5E5E5",
"fX c #E6E6E6",
"gX c #E7E7E7",
"hX c #E8E8E8",
"jX c #E9E9E9",
"kX c #EAEAEA",
"lX c #EBEBEB",
"zX c #ECECEC",
"xX c #EDEDED",
"cX c #EEEEEE",
"vX c #EFEFEF",
"bX c #F0F0F0",
"nX c #F1F1F1",
"mX c #F2F2F2",
"MX c #F3F3F3",
"NX c #F4F4F4",
"BX c #F5F5F5",
"VX c #F6F6F6",
"CX c #F7F7F7",
"ZX c #F8F8F8",
"AX c #F9F9F9",
"SX c #FAFAFA",
"DX c #FBFBFB",
"FX c #FCFCFC",
"GX c #FDFDFD",
"HX c #FEFEFE",
"JX c #FFFFFF",
/* pixels */
"                                              . . . . . . . . . . . . . . . . . . . . . . . . . . . . . . . . . . . . . . . . . . . . . . . . . . . . . . . . . . . . . . . . . . . . . . . . . . . . . . . . . .                                               ",
"                                      . . . . . . . . . . . . . . . . . . . . . . . . . . . . . . . . . . . . . . . . . . . . . . . . . . . . . . . . . . . . . . . . . . . . . . . . . . . . . . . . . . . . . . . . . .                                       ",
"                                  . . . . . . . . . . . . . . . . . . . . . . . . . . . . . . . . . . . . . . . . . . . . . . . . . . . . . . . . . . . . . . . . . . . . . . . . . . . . . . . . . . . . . . . . . . . . . .                                   ",
"                              . . . . . . . . . . . . . . . . . . . . . . . . . . . . . . . . . . . . . . . . . . . . . . . . . . . . . . . . . . . . . . . . . . . . . . . . . . . . . . . . . . . . . . . . . . . . . . . . . .                               ",
"                          . . . . . . . . . . . . . . . . . . . . . . . . . . . . . . . . . . . . . . . . . . . . . . . . . . . . . . . . . . . . . . . . . . . . . . . . . . . . . . . . . . . . . . . . . . . . . . . . . . . . . .                           ",
"                        . . . . . . . . . . . . . . . . . . . . . . . . . . . . . . . . . . . . . . . . . . . . . . . . . . . . . . . . . . . . . . . . . . . . . . . . . . . . . . . . . . . . . . . . . . . . . . . . . . . . . . . .                         ",
"                    . . . . . . . . . . . . . . . . . . . . . . . . . . . . . . . . . . . . . . . . . . . . . . . . . . . . . . . . . . . . . . . . . . . . . . . . . . . . . . . . . . . . . . . . . . . . . . . . . . . . . . . . . . . .                     ",
"                  . . . . . . . . . . . . . . . . . . . . . . . . . . . . . . . . . . . . . . . . . . . . . . . . . . . . . . . . . . . . . . . . . . . . . . . . . . . . . . . . . . . . . . . . . . . . . . . . . . . . . . . . . . . . . .                   ",
"                . . . . . . . . . . . . . . . . . . . . . . . . . . . . . . . . . . . . . . . . . . . . . . . . . . . . . . . . . . . . . . . . . . . . . . . . . . . . . . . . . . . . . . . . . . . . . . . . . . . . . . . . . . . . . . . .                 ",
"              . . . . . . . . . . . . . . . . . . . . . . . . . . . . . . . . . . . . . . . . . . . . . . . . . . . . . . . . . . . . . . . . . . . . . . . . . . . . . . . . . . . . . . . . . . . . . . . . . . . . . . . . . . . . . . . . . .               ",
"            . . . . . . . . . . . . . . . . . . . . . . . . . . . . . . . . . . . . . . . . . . . . . . . . . . . . . . . . . . . . . . . . . . . . . . . . . . . . . . . . . . . . . . . . . . . . . . . . . . . . . . . . . . . . . . . . . . . .             ",
"            . . . . . . . . . . . . . . . . . . . . . . . . . . . . . . . . . . . . . . . . . . . . . . . . . . . . . . . . . . . . . . . . . . . . . . . . . . . . . . . . . . . . . . . . . . . . . . . . . . . . . . . . . . . . . . . . . . . .             ",
"          . . . . . . . . . . . . . . . . . . . . . . . . . . . . . . . . . . . . . . . . . . . . . . . . . . . . . . . . . . . . . . . . . . . . . . . . . . . . . . . . . . . . . . . . . . . . . . . . . . . . . . . . . . . . . . . . . . . . . .           ",
"        . . . . . . . . . . . . . . . . . . . . . . . . . . . . . . . . . . . . . . . . . . . . . . . . . . . . . . . . . . . . . . . . . . . . . . . . . . . . . . . . . . . . . . . . . . . . . . . . . . . . . . . . . . . . . . . . . . . . . . . .         ",
"        . . . . . . . . . . . . . . . . . . . . . . . . . . . . . . . . . . . . . . . . . . . . . . . . . . . . . . . . . . . . . . . . . . . . . . . . . . . . . . . . . . . . . . . . . . . . . . . . . . . . . . . . . . . . . . . . . . . . . . . .         ",
"      . . . . . . . . . . . . . . . . . . . . . . . . . . . . . . . . . . . . . . . . . . . . . . . . . . . . . . . . . . . . . . . . . . . . . . . . . . . . . . . . . . . . . . . . . . . . . . . . . . . . . . . . . . . . . . . . . . . . . . . . . .       ",
"      . . . . . . . . . . . . . . . . . . . . . . . . . . . . . . . . . . . . . . . . . . . . . . . . . . . . . . . . . . . . . . . . . . . . . . . . . . . . . . . . . . . . . . . . . . . . . . . . . . . . . . . . . . . . . . . . . . . . . . . . . .       ",
"    . . . . . . . . . . . . . . . . . . . . . . . . . . . . . . . . . . . . . . . . . . . . . . . . . . . . . . . . . . . . . . . . . . . . . . . . . . . . . . . . . . . . . . . . . . . . . . . . . . . . . . . . . . . . . . . . . . . . . . . . . . . .     ",
"    . . . . . . . . . . . . . . . . . . . . . . . . . . . . . . . . . . . . . . . . . . . . . . . . . . . . . . . . . . . . . . . . . . . . . . . . . . . . . . . . . . . . . . . . . . . . . . . . . . . . . . . . . . . . . . . . . . . . . . . . . . . .     ",
"  . . . . . . . . . . . . . . . . . . . . . . . . . . . . . . . . . . . . . . . . . . . . . . . . . . . . . . . . . . . . . . . . . . . . . . . . . . . . . . . . . . . . . . . . . . . . . . . . . . . . . . . . . . . . . . . . . . . . . . . . . . . . . .   ",
"  . . . . . . . . . . . . . . . . . . . . . . . . . . . . . . . . . . . . . . . . . . . . . . . . . . . . . . . . . . . . . . . . . . . . . . . . . . . . . . . . . . . . . . . . . . . . . . . . . . . . . . . . . . . . . . . . . . . . . . . . . . . . . .   ",
"  . . . . . . . . . . . . . . . . . . . . . . . . . . . . . . . . . . . . . . . . . . . . . . . . . . . . . . . . . . . . . . . . . . . . . . . . . . . . . . . . . . . . . . . . . . . . . . . . . . . . . . . . . . . . . . . . . . . . . . . . . . . . . .   ",
"  . . . . . . . . . . . . . . . . . . . . . . . . . . . . . . . . . . . . . . . . . . . . . . . . . . . . . . . . . . . . . . . . . . . . . . . . . . . . . . . . . . . . . . . . . . . . . . . . . . . . . . . . . . . . . . . . . . . . . . . . . . . . . .   ",
". . . . . . . . . . . . . . . . . . . . . . . . . . . . . . . . . . . . . . . . . . . . . . . . . . . . . . . . . . . . . . . . . . . . . . . . . . . . . . . . . . . . . . . . . . . . . . . . . . . . . . . . . . . . . . . . . . . . . . . . . . . . . . . . ",
". . . . . . . . . . . . . . . . . . . . . . . . . . . . . . . . . . . . . . . . . . . . . . . . . . . . . . . . . . . . . . . . . . . . . . . . . . . . . . . . . . . . . . . . . . . . . . . . . . . . . . . . . . . . . . . . . . . . . . . . . . . . . . . . ",
". . . . . . . . . . . . . . . . . . . . . . . . . . . . . . . . . . . . . . . . . . . . . . . . . . . . . . . . . . . . . . . . . . . . . . . . . . . . . . . . . . . . . . . . . . . . . . . . . . . . . . . . . . . . . . . . . . . . . . . . . . . . . . . . ",
". . . . . . . . . . . . . . . . . . . . . . . . . . . . . . . . . . . . . . . . . . . . . . . . . . . . . . . . . . . . . . . . . . . . . . . . . . . . . . . . . . . . . . . . . . . . . . . . . . . . . . . . . . . . . . . . . . . . . . . . . . . . . . . . ",
". . . . . . . . . . . . . . . . . . . . . . . . . . . . . . . . . . . . . . . . . . . . . . . . . . . . . . . . . . . . . . . . . . . . . . . . . . . . . . . . . . . . . . . . . . . . . . . . . . . . . . . . . . . . . . . . . . . . . . . . . . . . . . . . ",
". . . . . . . . . . . . . . . . . . . . . . . . . . . . . . . . . . . . . . . . . . . . . . . . . . . . . . . . . . . . . . . . . . . . . . . . . . . . . . . . . . . . . . . . . . . . . . . . . . . . . . . . . . . . . . . . . . . . . . . . . . . . . . . . ",
". . . . . . . . . . . . . . . . . . . . . . . . . . . . . . . . . . . . . . . . . . . . . . . . . . . . . . . . . . . . . . . . . . . . . . . . . . . . . . . . . . . . . . . . . . . . . . . . . . . . . . . . . . . . . . . . . . . . . . . . . . . . . . . . ",
". . . . . . . . . . . . . . . . . . . . . . . . . . . . . . . . . . . . . . . . . . . . . . p g Z Z g 4 . . . . . . . . . . . . . . . . . . . . . . . . 0 g Y Z g p . . . . . . . . . . . . . . . . . . . . . . . . . . . . . . . . . . . . . . . . . . . . . . ",
". . . . . . . . . . . . . . . . . . . . . . . . . . . . . . . . . . . . . . . . . . . . p ( E ,.,.0.k.a.a. .p . . . . . . . . . . . . . . . . . . g &.k.M.k.3.3.,.E ( 0 . . . . . . . . . . . . . . . . . . . . . . . . . . . . . . . . . . . . . . . . . . . . ",
". . . . . . . . . . . . . . . . . . . . . . . . . . . . . . . . . . . . . . . . . . . g ( p  .g b ( p ( ,.M.7XY.( 4 . . . . . . . . . . . . 4 ( Q.7Xa.&.( g ( g b ( p ( p . . . . . . . . . . . . . . . . . . . . . . . . . . . . . . . . . . . . . . . . . . . ",
". . . . . . . . . . . . . . . . . . . . . . . . . . . . . . . . . . . . . . . . . . 4  .% E g 0  .% E Z % (  .:XFX%X&.4 . . . . . . . . 4 &.%XFXXX .( % Z Y % ( 4 b Y 4 ( % . . . . . . . . . . . . . . . . . . . . . . . . . . . . . . . . . . . . . . . . . . ",
". . . . . . . . . . . . . . . . . . . . . . . . . . . . . . . . . . . . . . . . . . E p 0 E . ( 0 0 E . Y p 4 &.Y.FXFXXXE . . . . . . E %XFXFXG. .. g Z . E 4 p Y . E 4 g Z . . . . . . . . . . . . . . . . . . . . . . . . . . . . . . . . . . . . . . . . . . ",
". . . . . . . . . . . . . . . . . . . . . . . . . . . . . . . . . . . . . . . . . 4 ( . Z 0 4 E . Y p % Y . Y g 0 XXVXFX0X0.4 . . 0 k.dXFXFX/.4 b b . Y % g Z . E % g b . E % . . . . . . . . . . . . . . . . . . . . . . . . . . . . . . . . . . . . . . . . . ",
". . . . . . . . . . . . . . . . . . . . . . . . . . . . . . . . . . . . . . . . . p Z . Y % p b . E % p b . E % p Y Y.FXdX0XG.0 p Q.0XdXFXM.E 0 4 Y . Z 0 4 Y . Z 0 4 Y . Y 0 . . . . . . . . . . . . . . . . . . . . . . . . . . . . . . . . . . . . . . . . . ",
". . . . . . . . . . . . . . . . . . . . . . . . . . . . . . . . . . . . . . . . . b p % Y . g p . Y . b g % Y . g 0 g dXFXlXY.a.k.Q.lXFX7X0 p p . Y . b p . E . g p . Y . g g . . . . . . . . . . . . . . . . . . . . . . . . . . . . . . . . . . . . . . . . . ",
". . . . . . . . . . . . . . . . . . . . . . . . . . . . . . . . . . . . . . . . . b 0 % E . g p % Y . Z g % Y . g 4 0 3.dXFXXXQ.Q.XXFX0X&.4 0 p . Y . b g . E . g p . Z . p g . . . . . . . . . . . . . . . . . . . . . . . . . . . . . . . . . . . . . . . . . ",
". . . . . . . . . . . . . . . . . . . . . . . . . . . . . . . . . . . . . . . . . g 4 % E . g p % Y . b g % Y . b 4 0 g ,.FXlX7X0XVXFX .b 4 0 g . Y . b g . Y . g p . Z . p g . . . . . . . . . . . . . . . . . . . . . . . . . . . . . . . . . . . . . . . . . ",
". . . . . . . . . . . . . . . . . . . . . . . . . . . . . . . . . . . . . . . . . g 0 % Y . p p . E . g g . Y . Z 0 0 b 4 7XFXVXVXFX%X% Z 4 p g . Y . b p % Y . b p . Y . p g . . . . . . . . . . . . . . . . . . . . . . . . . . . . . . . . . . . . . . . . . ",
". . . . . . . . . . . . . . . . . . . . . . . . . . . . . . . . . . . . . . . . . g p . Y . 0 b . E % p b . Y . b g 4 Z . k.VXFXFXlX0.. Y % b g % Y . Z 4 4 Z . Z 0 % Y . g p . . . . . . . . . . . . . . . . . . . . . . . . . . . . . . . . . . . . . . . . . ",
". . . . . . . . . . . . . . . . . . . . . . . . . . . . . . . . . . . . . . . . . p Z . Z 4 4 Y . Z 0 4 Z . Y 4 p b % Y . Y Y.FXFXG.Y . Y . Z 0 0 Z . Y % g b . Y % p Z . b 4 . . . . . . . . . . . . . . . . . . . . . . . . . . . . . . . . . . . . . . . . . ",
". . . . . . . . . . . . . . . . . . . . . . . . . . . . . . . . . . . . . . . . . 4 Y . g p . E . g b . Y . b p 4 Y . Y % Z ( VXdX( b % Y . E % g g % Y . Z 0 % Y . Z g . Y % . . . . . . . . . . . . . . . . . . . . . . . . . . . . . . . . . . . . . . . . . ",
". . . . . . . . . . . . . . . . . . . . . . . . . . . . . . . . . . . . . . . . . . Y % 0 Y . Y 0 4 E . Z 0 0 Z . Y . Z 0 g Z :X/.Z p p Z % E . Y 4 p b . E % g b . E 4 4 Y . . . . . . . . . . . . . . . . . . . . . . . . . . . . . . . . . . . . . . . . . . ",
". . . . . . . . . . . . . . . . . . . . . . . . . . . . . . . . . . . . . . . . . . b p . E % p Y . E 4 p Z . Y . Z 0 p g 0 Z /.G.Y 4 Z p p b % Y . Y 0 0 Y . E 0 4 E . b g . . . . . . . . . . . . . . . . . . . . . . . . . . . . . . . . . . . . . . . . . . ",
". . . . . . . . . . . . . . . . . . . . . . . . . . . . . . . . . . . . . . . . . . 4 Y . Z g . ( % b b % ( . Z 0 p b % Y % E %X/.( % E % Y 0 p b % ( . Z p 4 ( . b g . E % . . . . . . . . . . . . . . . . . . . . . . . . . . . . . . . . . . . . . . . . . . ",
". . . . . . . . . . . . . . . . . . . . . . . . . . . . . . . . . . . . . . . . . . . Y 4 4 E . Z b % ( . Y p 0 Z % E . Y % &.VXlX( 4 Y % E . Y 4 b Z % ( . Z b . E % p Y . . . . . . . . . . . . . . . . . . . . . . . . . . . . . . . . . . . . . . . . . . . ",
". . . . . . . . . . . . . . . . . . . . . . . . . . . . . . . . . . . . . . . . . . . p Z . E p % ( . Y p 0 E . E % Z 0 g p ,.FXFX( b p g Z 4 Y .  .4 b Z % ( % g Z . E 0 . . . . . . . . . . . . . . . . . . . . . . . . . . . . . . . . . . . . . . . . . . . ",
". . . . . . . . . . . . . . . . . . . . . . . . . . . . . . . . . . . . . . . . . . . . E 4 0 E . Y g 4 E . E 0 g b 0 Y 4 E Q.FXFXG.E % E 4 Z p g E % ( % b Z . E % 0 E . . . . . . . . . . . . . . . . . . . . . . . . . . . . . . . . . . . . . . . . . . . . ",
". . . . . . . . . . . . . . . . . . . . . . . . . . . . . . . . . . . . . . . . . . . . p Y . Y p % E . Y p p E % ( % E 4  .lXFXFXdXE 0 E % E % ( 4 b Z % ( % g Z . E 0 . . . . . . . . . . . . . . . . . . . . . . . . . . . . . . . . . . . . . . . . . . . . ",
". . . . . . . . . . . . . . . . . . . . . . . . . . . . . . . . . . . . . . . . . . . . . Y 0 4 E . b b % ( % E 0 b b p Z  .VXFXFXFX( Y p b g g Y % ( % Z b % E % g Y . . . . . . . . . . . . . . . . . . . . . . . . . . . . . . . . . . . . . . . . . . . . . ",
". . . . . . . . . . . . . . . . . . . . . . . . . . . . . . . . . . . . . . . . . . . . . 4 ( . b Z . E % b b 0 E % ( 4 ( /.FXVXVXFXQ.E 4 E %  .4 Y g 4 E . Y g % ( 4 . . . . . . . . . . . . . . . . . . . . . . . . . . . . . . . . . . . . . . . . . . . . . ",
". . . . . . . . . . . . . . . . . . . . . . . . . . . . . . . . . . . . . . . . . . . . . . Z Z . E 0 0 Y % Y 4 Z g g Z Y VXFXFXFXFXlXb Z p Z b p E % ( 4 p Y . E b . % % % . . . . . . . . . . . . . . . . . . . . . . . . . . . . . . . . . . . . . . . . . . ",
". . . . . . . . . . . . . . . . . . . . . . . . . . . . . . . . . . . % 0 g Z Y Y Y Y Y Y Y E 0. .E 3.0 E Z 4 Y % ( 4 E 0.0XVXVXVXFX7X3.Y 0 ( 4 ( 4 Z Y 0 0.Y ,.0.Z Z Y Y Y Y Y Z Z g 0 % . . . . . . . . . . . . . . . . . . . . . . . . . . . . . . . . . . . ",
". . . . . . . . . . . . . . . . . . . . . . . . . . . . . . . . . p Z Y Y g 0 % . . . . . . . 0 3.Z ( 0. .M.Y E Z p Y b Q.Q.:X7X7X7XY.Q.b E 0 Y Y E M.( 0.E Z &.4 . . . . . . . % 4 p b Y Z 0 . . . . . . . . . . . . . . . . . . . . . . . . . . . . . . . . . ",
". . . . . . . . . . . . . . . . . . . . . . . . . . . . . . . g E Z 0 . . . 4 p g g b b b b b b ( 3.p ( Y p 0. .M.E ( 3.Y.XX%XXX%XXX%XG.0.E ( a.( 0.g ( E g 3.Y g b b Z b b g g 0 % . . . 0 Y E p . . . . . . . . . . . . . . . . . . . . . . . . . . . . . . . ",
". . . . . . . . . . . . . . . . . . . . . . . . . . . . . 4 E Y % . % p Y E Y b p 0 4 % % % 4 0 0 Y a.( a.&.( &.g 0.k.%X0XdXdXdXdXdXdX%X/.0.3.g ,.E 3.a.Y 0.Z 4 4 % % % % 4 p g Z Y Y b 0 . . 4 Y Y % . . . . . . . . . . . . . . . . . . . . . . . . . . . . . ",
". . . . . . . . . . . . . . . . . . . . . . . . . . . . 0  .p . % Z E Z 0 . . . % 4 0 0 0 p p p p p E ( 0  .E &.a.&.Q.G.dXdXdX0X0XdXdX0Xk.Y. .a. .E  .0  .Y 0 p p g g g p 0 4 % . . % p Y E b % . g  .4 . . . . . . . . . . . . . . . . . . . . . . . . . . . . ",
". . . . . . . . . . . . . . . . . . . . . . . . . . . 4  .0 . g ( b % . . p b Z Y Z b p 0 0 0 p p g b  .0. .a.E ( a.M.%X7X7X%X7X0XXX7X:XXXa.a.E ( 3.E 0. .Z b p p g g g b Z Y E Y Z p . . % b ( g . p  .% . . . . . . . . . . . . . . . . . . . . . . . . . . . ",
". . . . . . . . . . . . . . . . . . . . . . . . . . . E g . E Y % . 4 Z Y b 0 % . . . 4 4 4 0 0 0 0 0 0 E &.b 3.3.Q.M.Q.7XdX0X0XlXdX7X7XY.M.Y.3.,.g &.Y 0 0 4 4 4 4 4 4 4 . . . % p Y ( Y 4 . 4 ( Y . b Y . . . . . . . . . . . . . . . . . . . . . . . . . . . ",
". . . . . . . . . . . . . . . . . . . . . . . . . . 0 E . E Z . % Y E p . . % p Z E Y Z b g g b b b b Z Z ,.0. .Y.M.Y.:XlXdXVXdXlXVXdXdXXXM.a.G.&.0.,.Y Z g g p p p p Z E ( E Z p % . . g ( Y % . Y Y . E 4 . . . . . . . . . . . . . . . . . . . . . . . . . . ",
". . . . . . . . . . . . . . . . . . . . . . . . . . b p b Y . p ( g . . p Y E b 0 % . . % % 4 4 4 4 4 4 4 4 b 0.M.XX%X0XdX0XdXlXVXlX0XdX0X%XQ.M.0.b 0 0 0 0 p p 0 4 % . . . 4 p Z E Y p . . b ( 0 . E p g g . . . . . . . . . . . . . . . . . . . . . . . . . . ",
". . . . . . . . . . . . . . . . . . . . . . . . . . Z 0 ( % p ( 4 . p ( Y 0 . . 4 g Y ( ( Y b p p p p g g g Z M.XX7X7XdXdXVXdXdXlXlXVXlXdX7X0X%Xk.Z Z g p p g g b b b Z Z Z g % . . 0 E E 0 . 4 ( 0 4 E p Z . . . . . . . . . . . . . . . . . . . . . . . . . . ",
". . . . . . . . . . . . . . . . . . . . . . . . . . Z b b 4 ( % . Y Y 4 . % b ( ( Z 0 % . . % % 4 0 p p p p E M.7XdX7XXXlXVXlXdXlXVXFXdXXX0XlX7Xk.Y p p 0 0 0 4 4 % . . % 0 b E E g % . 4 Y Z . 4 ( % Z b Z . . . . . . . . . . . . . . . . . . . . . . . . . . ",
". . . . . . . . . . . . . . . . . . . . . . . . . . b E p Y p % ( b . % Y ( b 4 . . 0 b Z Y Z b g g g b g Y G.XX:XdXdX0X0X0XlXlXlXVXdX0X0XdXdX:X/.Y.Z p p p g b Z Z Z Z g 0 . . 4 b E b . . b E . b Z g ( b . . . . . . . . . . . . . . . . . . . . . . . . . . ",
". . . . . . . . . . . . . . . . . . . . . . . . . . 4 ,.b E % E b . g  .b . . p Y E Y p 4 . % % 0 p b b Z G.0X:XXX0XdX7X0XdXVXdXdXVXdX0X0XdX0X/.:X0Xk.b b g p 0 % . . % p Z Y Z 0 . . b E 0 . Z Y % E Y ,.4 . . . . . . . . . . . . . . . . . . . . . . . . . . ",
". . . . . . . . . . . . . . . . . . . . . . . . . . . &.a.Y p E . b ( 4 . p E Y p . . 4 b Y E Y b g p 0 3.VXFXlX:XY.0XdX7X%X0X0X0XdX%X0X0X0X/.:XVXFXVX,.0 p g Z Y Y Y g 4 . . 0 Y E p . 4 E p . E 0 Y a.E . . . . . . . . . . . . . . . . . . . . . . . . . . . ",
". . . . . . . . . . . . . . . . . . . . . . . . . . . 4 0.3.b 0 p ( . % E Y 4 . 4 b Y Y g 4 % % 0 p g ,.dXFXFXFXdX%X0XdX0X0X7X7X0X7X7XlX0X7X:XlXFXFXFX0X .g p 4 % % 4 b E E Z 4 . 4 E E % % ( 4 g b 0.,.. . . . . . . . . . . . . . . . . . . . . . . . . . . . ",
". . . . . . . . . . . . . . . . . . . . . . . . . . . . 0 a.,.4 E 4 4  .g . 4 Y E p % . 4 b E E Z p &.lXFXFXFXFXVX:X/.lXlX7X%XG.G.%X7XlXlXQ.7XVXFXFXFXFX0X( g Y E E g 4 . % b ( Y 4 . b  .% 0 Y p 0.a.4 . . . . . . . . . . . . . . . . . . . . . . . . . . . . ",
". . . . . . . . . . . . . . . . . . . . . . . . . . . . . 0 G.0.E . ( p . Z ( p . % Z ( Y g 4 % 4 E 0XFXFXFXFXFXFX/.Q.Q.%Xk.G.0.3.G.G.%X/./.%XFXFXFXFXFXFX:XY 4 % 4 g Z Y g % . g  .b . b ( . ( a.G.4 . . . . . . . . . . . . . . . . . . . . . . . . . . . . . ",
". . . . . . . . . . . . . . . . . . . . . . . . . . . . . . 4 G.:Xa. .. Y E . % Z  .Z % . 0 Z Y ,.lXFXFXFXFXlXdX7Xk.k.( G.a.M.a.a.G.a.Y. .k.0.7XlXlXFXFXFXFXdX,.Y Z 0 . % b E b . % ( Z . &.a.7XG.4 . . . . . . . . . . . . . . . . . . . . . . . . . . . . . . ",
". . . . . . . . . . . . . . . . . . . . . . . . . . . . . . . % k.VX0X/.G.Z Y ,.Z % % b E Y Z &.7XFXVX%XG.G.Z &.b Y g Z Y 3.( &.,.( 0.E Z b Z Z  .Z Y.Y.:XFXFX%X .Z Y E b % % Z &.b Y Q./.dXVX0.% . . . . . . . . . . . . . . . . . . . . . . . . . . . . . . . ",
". . . . . . . . . . . . . . . . . . . . . . . . . . . . . . . . . &.0XFXVXdXVX0X/.Y.%X%XQ./.7XlXY.k.,.4 Y 0 g Z 0 E 4 Y p ,.Y (  .b ,.p E 4 E 4 Y p g E 0 0.k./.VX:XQ.Q.:XXXG./.0XlXdXlXFX7X( . . . . . . . . . . . . . . . . . . . . . . . . . . . . . . . . . ",
". . . . . . . . . . . . . . . . . . . . . . . . . . . . . . . . . . g Y.dXlX7X0XFXFXFXFXFXFXFX0.Y Y . Y b 4 ( % E 0 Z p Y ,.(  .&.E ,.Z g Z p E 4 ( 4 Z Y % ( Y k.FXFXFXFXFXFXFX0X7XlX0XM.p . . . . . . . . . . . . . . . . . . . . . . . . . . . . . . . . . . ",
". . . . . . . . . . . . . . . . . . . . . . . . . . . . . . . . . . . % ( /.%X:XQ.XXlXFXFXFXG.Y Y . Y Z % E 0 g Z 0 E % E ( &. .( &.E E % ( 4 E p p E % E Z % E E Q.FXFXFXdX/.Q.7X%XQ.E . . . . . . . . . . . . . . . . . . . . . . . . . . . . . . . . . . . . ",
". . . . . . . . . . . . . . . . . . . . . . . . . . . . . . . . . . . . . 4 Y 0.a./.:XVXFX0X,.Z . Y E . Y g 4 E % Y 0 b g E Y E Y  .Z b g p Y 4  .% Z Z . E Z . Y 3.dXFXFXXXQ.0.0.Z % . . . . . . . . . . . . . . . . . . . . . . . . . . . . . . . . . . . . . ",
". . . . . . . . . . . . . . . . . . . . . . . . . . . . . . . . . . . . . . . . g Q.XXlXFXY.g . E E . Z Z . ( 0 p Y % E % &.E  .( ( ( % ( % E 0 g ( . Y b . E Z . b /.FXFX%XY.p . . . . . . . . . . . . . . . . . . . . . . . . . . . . . . . . . . . . . . . . ",
". . . . . . . . . . . . . . . . . . . . . . . . . . . . . . . . . . . . . . . . Z Q.7XFX%X0 % E Y . b Z . Z b % ( % b p 0 Y ( (  . .Y 4 b b 4 ( . Y Z . E g . Y E . p :XFX0XQ.g . . . . . . . . . . . . . . . . . . . . . . . . . . . . . . . . . . . . . . . . ",
". . . . . . . . . . . . . . . . . . . . . . . . . . . . . . . . . . . . . . . . ( 0XVXVX( p  .g . b Z . g Y . Y g 4 E . Y 4  .Z E  .0 Z % ( % b Z . ( g % ( b . b ( 0 ,.FXVX7XY . . . . . . . . . . . . . . . . . . . . . . . . . . . . . . . . . . . . . . . . ",
". . . . . . . . . . . . . . . . . . . . . . . . . . . . . . . . . . . . . . . . &.7XVX0X&.( 4 . Z Z . g E . b Y . E 0 0 Z . ,.Y ( &.. Y 4 g Y . E g %  .p . E Z . 4 E &.dXFX:XE . . . . . . . . . . . . . . . . . . . . . . . . . . . . . . . . . . . . . . . . ",
". . . . . . . . . . . . . . . . . . . . . . . . . . . . . . . . . . . . . . . . 0.VXFXG.p . 4 E g . g ( % 0 ( . g Z . Y 4 g Z  .( Y p 0 Y . Y p % ( 0 4  .p . Z E 4 . p Y.FXlX&.. . . . . . . . . . . . . . . . . . . . . . . . . . . . . . . . . . . . . . . . ",
". . . . . . . . . . . . . . . . . . . . . . . . . . . . . . . . . . . . . . . . a.FXdXg % Z E 0 . b E % 0 ( 4 4 ( % g b . E %  .( 4 ( . Z p % ( % 0  .4 4 ( g . p ( b % Z lXVX&.. . . . . . . . . . . . . . . . . . . . . . . . . . . . . . . . . . . . . . . . ",
". . . . . . . . . . . . . . . . . . . . . . . . . . . . . . . . . . . . . . . . 0.FX:XE E g . % Y Y . 4  .0 % ( 0 4 E . b Z . &.( . Y b % E % p E . p  .4 % E Z . . g E ( 7XFX&.. . . . . . . . . . . . . . . . . . . . . . . . . . . . . . . . . . . . . . . . ",
". . . . . . . . . . . . . . . . . . . . . . . . . . . . . . . . . . . . . . . . 3.FXa.4 . . p E g . 0 &.p . E g . Y 0 % E % b Z Z p %  .% p Y . b Y . p &.0 . Z ( p . . 4 M.FX .. . . . . . . . . . . . . . . . . . . . . . . . . . . . . . . . . . . . . . . . ",
". . . . . . . . . . . . . . . . . . . . . . . . . . . . . . . . . . . . . . . .  .VX,.0 b E Z % . b  .0 . Y Z . b b . Z g % ( % 4 E . b Z . Y b . Y Y . p &.g . 4 Y E b p a.FXE . . . . . . . . . . . . . . . . . . . . . . . . . . . . . . . . . . . . . . . . ",
". . . . . . . . . . . . . . . . . . . . . . . . . . . . . . . . . . . . . . . . E dX( g p % . 4 Y E % . E Z . g Y . p E . Z b . . Z g . E 0 . ( p . Y Y . 4 ( Y % . % g b &.dXZ . . . . . . . . . . . . . . . . . . . . . . . . . . . . . . . . . . . . . . . . ",
". . . . . . . . . . . . . . . . . . . . . . . . . . . . . . . . . . . . . . . . g 7XY % % 0 Z E g . 4 ( Z . p ( % % ( 4 4 ( % . . % ( % 4 Y . 4  .0 . Z E % . g E Z 0 % % ( :Xp . . . . . . . . . . . . . . . . . . . . . . . . . . . . . . . . . . . . . . . . ",
". . . . . . . . . . . . . . . . . . . . . . . . . . . . . . . . . . . . . . . . 4 /. .Y Y Z p . . g  .g . p ( 4 . ( p . ( p . . . . g Y . p E . 0  .0 . g  .p . . p Y Y Z &.Q.% . . . . . . . . . . . . . . . . . . . . . . . . . . . . . . . . . . . . . . . . ",
". . . . . . . . . . . . . . . . . . . . . . . . . . . . . . . . . . . . . . . . . M. .4 . . % p E Y % . b ( % . E b . Z Z . . . . . . Y g . Z Y . 4 ( g . 4 E E p % . . 4 ,.k.. . . . . . . . . . . . . . . . . . . . . . . . . . . . . . . . . . . . . . . . . ",
". . . . . . . . . . . . . . . . . . . . . . . . . . . . . . . . . . . . . . . . .  .,.E Y Y E Y 0 . % Y Y % . E Y . p ( . . . . . . . % E 0 . Y Z . % E Z % . 0 Y E Y Y E 0.( . . . . . . . . . . . . . . . . . . . . . . . . . . . . . . . . . . . . . . . . . ",
". . . . . . . . . . . . . . . . . . . . . . . . . . . . . . . . . . . . . . . . . b M.b 4 % . . % b ( g . % E Z . 0  .4 . . . . . . . . 4 ( 4 . Z Y . . b ( b % . . % % b G.p . . . . . . . . . . . . . . . . . . . . . . . . . . . . . . . . . . . . . . . . . ",
". . . . . . . . . . . . . . . . . . . . . . . . . . . . . . . . . . . . . . . . . % a. .Y Z Z Y E b % . 0 ( g . 0  .0 . . . . . . . . . . 0 ( 4 . b E 0 . % b E Y b g Y ,.a.. . . . . . . . . . . . . . . . . . . . . . . . . . . . . . . . . . . . . . . . . . ",
". . . . . . . . . . . . . . . . . . . . . . . . . . . . . . . . . . . . . . . . . .  .0.p 4 4 % . . 4 Y E 4 . g  .0 . . . . . . . . . . . . 0 ( 0 . 0 E Z 4 . . % 4 4 g M.( . . . . . . . . . . . . . . . . . . . . . . . . . . . . . . . . . . . . . . . . . . ",
". . . . . . . . . . . . . . . . . . . . . . . . . . . . . . . . . . . . . . . . . . 4 ,. .Y g p b Y Y p . . Y  .4 . . . . . . . . . . . . . . 4 ( b . . p Y Z b p g E ,.,.% . . . . . . . . . . . . . . . . . . . . . . . . . . . . . . . . . . . . . . . . . . ",
". . . . . . . . . . . . . . . . . . . . . . . . . . . . . . . . . . . . . . . . . . . p ( g p p 0 % . . g ( Z . . . . . . . . . . . . . . . . . % Z ( g . . % 0 0 p Z  .0 . . . . . . . . . . . . . . . . . . . . . . . . . . . . . . . . . . . . . . . . . . . ",
". . . . . . . . . . . . . . . . . . . . . . . . . . . . . . . . . . . . . . . . . . . . p ( Z p p g Y ( Y 4 . . . . . . . . . . . . . . . . . . . . 0 Y ( Z g p g Y E 0 . . . . . . . . . . . . . . . . . . . . . . . . . . . . . . . . . . . . . . . . . . . . ",
". . . . . . . . . . . . . . . . . . . . . . . . . . . . . . . . . . . . . . . . . . . . . . 0 p g g p % . . . . . . . . . . . . . . . . . . . . . . . . % p g g g 0 . . . . . . . . . . . . . . . . . . . . . . . . . . . . . . . . . . . . . . . . . . . . . . ",
". . . . . . . . . . . . . . . . . . . . . . . . . . . . . . . . . . . . . . . . . . . . . . . . . . . . . . . . . . . . . . . . . . . . . . . . . . . . . . . . . . . . . . . . . . . . . . . . . . . . . . . . . . . . . . . . . . . . . . . . . . . . . . . . ",
". . . . . . . . . . . . . . . . . . . . . . . . . . . . . . . . . . . . . . . . . . . . . . . . . . . . . . . . . . . . . . . . . . . . . . . . . . . . . . . . . . . . . . . . . . . . . . . . . . . . . . . . . . . . . . . . . . . . . . . . . . . . . . . . ",
". . . . . . . . . . . . . . . . . . . . . . . . . . . . . . . . . . . . . . . . . . . . . . . . . . . . . . . . . . . . . . . . . . . . . . . . . . . . . . . . . . . . . . . . . . . . . . . . . . . . . . . . . . . . . . . . . . . . . . . . . . . . . . . . ",
". . . . . . . . . . . . . . . . . . . . . . . . . . . . . . . . . . . . . . . . . . . . . . . . . . . . . . . . . . . . . . . . . . . . . . . . . . . . . . . . . . . . . . . . . . . . . . . . . . . . . . . . . . . . . . . . . . . . . . . . . . . . . . . . ",
". . . . . . . . . . . . . . . . . . . . . . . . . . . . . . . . . . . . . . . . . . . . . . . . . . . . . . . . . . . . . . . . . . . . . . . . . . . . . . . . . . . . . . . . . . . . . . . . . . . . . . . . . . . . . . . . . . . . . . . . . . . . . . . . ",
". . . . . . . . . . . . . . . . . . . . . . . . . . . . . . . . . . . . . . . . . . . . . . . . . . . . . . . . . . . . . . . . . . . . . . . . . . . . . . . . . . . . . . . . . . . . . . . . . . . . . . . . . . . . . . . . . . . . . . . . . . . . . . . . ",
". . . . . . . . . . . . . . . . . . . . . . . . . . . . . . . . . . . . . . . . . . . . . . . . . . . . . . . . . . . . . . . . . . . . . . . . . . . . . . . . . . . . . . . . . . . . . . . . . . . . . . . . . . . . . . . . . . . . . . . . . . . . . . . . ",
"  . . . . . . . . . . . . . . . . . . . . . . . . . . . . . . . . . . . . . . . . . . . . . . . . . . . . . . . . . . . . . . . . . . . . . . . . . . . . . . . . . . . . . . . . . . . . . . . . . . . . . . . . . . . . . . . . . . . . . . . . . . . . . .   ",
"  . . . . . . . . . . . . . . . . . . . . . . . . . . . . . . . . . . . . . . . . . . . . . . . . . . . . . . . . . . . . . . . . . . . . . . . . . . . . . . . . . . . . . . . . . . . . . . . . . . . . . . . . . . . . . . . . . . . . . . . . . . . . . .   ",
"  . . . . . . . . . . . . . . . . . . . . . . . . . . . . . . . . . . . . . . . . . . . . . . . . . . . . . . . . . . . . . . . . . . . . . . . . . . . . . . . . . . . . . . . . . . . . . . . . . . . . . . . . . . . . . . . . . . . . . . . . . . . . . .   ",
"  . . . . . . . . . . . . . . . . . . . . . . . . . . . . . . . . . . . . . . . . . . . . . . . . . . . . . . . . . . . . . . . . . . . . . . . . . . . . . . . . . . . . . . . . . . . . . . . . . . . . . . . . . . . . . . . . . . . . . . . . . . . . . .   ",
"    . . . . . . . . . . . . . . . . . . . . . . . . . . . . . . . . . . . . . . . . . . . . . . . . . . . . . . . . . . . . . . . . . . . . . . . . . . . . . . . . . . . . . . . . . . . . . . . . . . . . . . . . . . . . . . . . . . . . . . . . . . . .     ",
"    . . . . . . . . . . . . . . . . . . . . . . . . . . . . . . . . . . . . . . . . . . . . . . . . . . . . . . . . . . . . . . . . . . . . . . . . . . . . . . . . . . . . . . . . . . . . . . . . . . . . . . . . . . . . . . . . . . . . . . . . . . . .     ",
"      . . . . . . . . . . . . . . . . . . . . . . . . . . . . . . . . . . . . . . . . . . . . . . . . . . . . . . . . . . . . . . . . . . . . . . . . . . . . . . . . . . . . . . . . . . . . . . . . . . . . . . . . . . . . . . . . . . . . . . . . . .       ",
"      . . . . . . . . . . . . . . . . . . . . . . . . . . . . . . . . . . . . . . . . . . . . . . . . . . . . . . . . . . . . . . . . . . . . . . . . . . . . . . . . . . . . . . . . . . . . . . . . . . . . . . . . . . . . . . . . . . . . . . . . . .       ",
"        . . . . . . . . . . . . . . . . . . . . . . . . . . . . . . . . . . . . . . . . . . . . . . . . . . . . . . . . . . . . . . . . . . . . . . . . . . . . . . . . . . . . . . . . . . . . . . . . . . . . . . . . . . . . . . . . . . . . . . . .         ",
"        . . . . . . . . . . . . . . . . . . . . . . . . . . . . . . . . . . . . . . . . . . . . . . . . . . . . . . . . . . . . . . . . . . . . . . . . . . . . . . . . . . . . . . . . . . . . . . . . . . . . . . . . . . . . . . . . . . . . . . . .         ",
"          . . . . . . . . . . . . . . . . . . . . . . . . . . . . . . . . . . . . . . . . . . . . . . . . . . . . . . . . . . . . . . . . . . . . . . . . . . . . . . . . . . . . . . . . . . . . . . . . . . . . . . . . . . . . . . . . . . . . . .           ",
"            . . . . . . . . . . . . . . . . . . . . . . . . . . . . . . . . . . . . . . . . . . . . . . . . . . . . . . . . . . . . . . . . . . . . . . . . . . . . . . . . . . . . . . . . . . . . . . . . . . . . . . . . . . . . . . . . . . . .             ",
"            . . . . . . . . . . . . . . . . . . . . . . . . . . . . . . . . . . . . . . . . . . . . . . . . . . . . . . . . . . . . . . . . . . . . . . . . . . . . . . . . . . . . . . . . . . . . . . . . . . . . . . . . . . . . . . . . . . . .             ",
"              . . . . . . . . . . . . . . . . . . . . . . . . . . . . . . . . . . . . . . . . . . . . . . . . . . . . . . . . . . . . . . . . . . . . . . . . . . . . . . . . . . . . . . . . . . . . . . . . . . . . . . . . . . . . . . . . . .               ",
"                . . . . . . . . . . . . . . . . . . . . . . . . . . . . . . . . . . . . . . . . . . . . . . . . . . . . . . . . . . . . . . . . . . . . . . . . . . . . . . . . . . . . . . . . . . . . . . . . . . . . . . . . . . . . . . . .                 ",
"                  . . . . . . . . . . . . . . . . . . . . . . . . . . . . . . . . . . . . . . . . . . . . . . . . . . . . . . . . . . . . . . . . . . . . . . . . . . . . . . . . . . . . . . . . . . . . . . . . . . . . . . . . . . . . . .                   ",
"                    . . . . . . . . . . . . . . . . . . . . . . . . . . . . . . . . . . . . . . . . . . . . . . . . . . . . . . . . . . . . . . . . . . . . . . . . . . . . . . . . . . . . . . . . . . . . . . . . . . . . . . . . . . . .                     ",
"                        . . . . . . . . . . . . . . . . . . . . . . . . . . . . . . . . . . . . . . . . . . . . . . . . . . . . . . . . . . . . . . . . . . . . . . . . . . . . . . . . . . . . . . . . . . . . . . . . . . . . . . . .                         ",
"                          . . . . . . . . . . . . . . . . . . . . . . . . . . . . . . . . . . . . . . . . . . . . . . . . . . . . . . . . . . . . . . . . . . . . . . . . . . . . . . . . . . . . . . . . . . . . . . . . . . . . . .                           ",
"                              . . . . . . . . . . . . . . . . . . . . . . . . . . . . . . . . . . . . . . . . . . . . . . . . . . . . . . . . . . . . . . . . . . . . . . . . . . . . . . . . . . . . . . . . . . . . . . . . . .                               ",
"                                  . . . . . . . . . . . . . . . . . . . . . . . . . . . . . . . . . . . . . . . . . . . . . . . . . . . . . . . . . . . . . . . . . . . . . . . . . . . . . . . . . . . . . . . . . . . . . .                                   ",
"                                      . . . . . . . . . . . . . . . . . . . . . . . . . . . . . . . . . . . . . . . . . . . . . . . . . . . . . . . . . . . . . . . . . . . . . . . . . . . . . . . . . . . . . . . . . .                                       ",
"                                              . . . . . . . . . . . . . . . . . . . . . . . . . . . . . . . . . . . . . . . . . . . . . . . . . . . . . . . . . . . . . . . . . . . . . . . . . . . . . . . . . .                                               "
};
